X:84
T:Who Cares for You THO4.084
M:2/4
L:1/8
Z:vmp. Peter Dunk 2010/11.from a transcription by Fynn Titford-Mock 2007
B:Thompson's Compleat Collection of 200 Favourite Country Dances Volume IV.
Q:1/4=140
K:G
G2 DG|A2 DA|B2 GB|cAFD|G2 DG|A2 Dc|BdAF|G2G,2::dddd|dddd|
e2f2|g4|d2 cB|c2 BA|BdBG|AFED|G2 DG|A2 Dc|BGAF|G2G,2:|
